icon/lg/section-icon.svg

<?xml version="1.0" encoding="UTF-8"?>
<svg viewBox="0 0 256 431" version="1.1" xmlns="http://www.w3.org/2000/svg" xmlns:xlink="http://www.w3.org/1999/xlink" preserveAspectRatio="xMidYMid" height="1em" width="1em">
  <g>
    <path d="M98.1838916,302.837329 L219.803079,328.749435 L219.803079,101.304895 L98.1838916,127.117041 L98.1838916,302.837329 Z M256.011165,376.05319 L69.028607,325.517364 L69.028607,104.359259 L255.733496,54.1899556 L256.000059,376.064297 L256.011165,376.05319 Z" fill="#00A86B"/>
    <path d="M179.318883,0 L0,65.0412748 L0,365.190764 L179.318883,430.243146 L179.318883,0 Z M31.9541919,347.564312 L31.9541919,82.6899404 L143.510641,48.2589377 L143.510641,381.984208 L31.9541919,347.553205 L31.9541919,347.564312 Z" fill="#00A86B"/>
    <path d="M179.318883,109.879326 L197.011976,106.136343 L197.011976,69.9726829 L179.318883,74.7152759 L179.318883,109.879326 Z M179.318883,355.316841 L197.011976,360.092754 L197.011976,323.895775 L179.318883,320.119471 L179.318883,355.316841 Z" fill="#038754"/>
  </g>
</svg>

<svg width="256" height="431" xmlns="http://www.w3.org/2000/svg" preserveAspectRatio="xMidYMid"><path d="m98.184 302.837 121.62 25.912V101.305l-121.62 25.812v175.72Zm157.827 73.216L69.03 325.517V104.36L255.733 54.19 256 376.064l.011-.01Z" fill="#00A86B"/><path d="M179.319 0 0 65.041v300.15l179.319 65.052V0ZM31.954 347.564V82.69l111.557-34.431v333.725l-111.557-34.43v.01Z" fill="#00A86B"/><path d="m179.319 109.88 17.693-3.744V69.973l-17.693 4.742v35.164Zm0 245.437 17.693 4.776v-36.197l-17.693-3.777v35.198Z" fill="#038754"/></svg>
